X:1325
T:Green grow the Rushes O
A:Wyresdale, Lancashire
B:E and J Winder, 1835-41
L:1/8
M:4/4
O:England
Z:Richard Robinson 
%%TUNEURL: http://www.leeds.ac.uk/music/Info/RRTuneBk/gettune/00001207.html
%%ID:00001207
K:E min
A | G/G/G BA BGGB | A/A/A e>d eAAB | c3e d/c/B/A/ GB | A/B/c B>A GEE ::
A | G/G/G g>f gddg | e/e/e ag aeef | gag(e d/)c/B/A/ GB | A/B/c BA GEE
A | G/G/G gf gddg | e/e/e ag aeef | gbeg dgBg | A/B/c B>A GEE ::
